X:361
T:Rabbit in a Log
C:Arr. Tim O'Brien
N:From: Learn to Play the Professional Way
R:bluegrass
L:1/8
Q:1/4=220
M:4/4
K:C
z2 [AD][AD] [A2E2] [A2F2] | "D"[A2^F2] [AA][AA] [AA][AA] FG | [AG][AA] [AA][AA] [AA][AA] ^FA | 
BA ^FB AF EF | [A2D2] [AD][AD] [A2E2] [A2F2] | [A^F][AA] [AA][AA] [AA][AA] FA | 
BA ^FB AF DF | "A"[AE][AE] [AE][AE] [AE][AE] [AD][A^F] | [A2E2] [AD][AD] [A2E2] [A2F2] | 
"D"[A^F][AA] [AA][AA] [A2A2] [AF][AG] | [AG][AA] [AA][AA] [AA][AA] ^FA | BA ^FB AF EF | 
[A2D2] [AD][AD] [A2E2] [A2F2] | [A^F][AG] [AA][AA] [AA][AA] [AF]G | "A"AB A^F EG FE | 
"D"[A2D2] [AD][AE] [AD][DB,] [DA,][DB,] | [D2D2] [DD][DD] [D2D2] [D2D2] | 


